X: 1
T: Gan Ainm
M: 4/4
L: 1/8
R: strathspey
K: Dmaj
|: (3dcB | A<Fd>F E>A,C>E | (3FED d>D c>DB>D |
A<Fd>F E>A,C>E |1 F>A (3GFE D>c:|2 F>A (3Bcd A>^GA>f ||
K: Amaj
e<ca>c (3efe e>f | e<ca>c f>e (3f^ga |
e<ca>c (3efe e>c | (3ded (3cdc B>cd>f |
e<ca>c (3efe e>f | e<ca>c f>ef>^g |
a>fe>c a>fe>c | (3ded (3cdc B>c||
